src/status/symbolic/news-symbolic.svg

<svg width="16" height="16" version="1.1" viewBox="0 0 16 16" xmlns="http://www.w3.org/2000/svg">
 <defs>
  <style id="current-color-scheme" type="text/css">.ColorScheme-Text { color:#7c7c7c; } .ColorScheme-Highlight { color:#5294e2; }</style>
 </defs>
 <path d="m3 1c-1.662 0-3 1.338-3 3v8c0 1.662 1.338 3 3 3h10c1.662 0 3-1.338 3-3v-8c0-1.662-1.338-3-3-3h-10zm0 1h10c1.108 0 2 0.892 2 2v8c0 1.108-0.892 2-2 2h-10c-1.108 0-2-0.892-2-2v-8c0-1.108 0.892-2 2-2z" fill="#363636" stroke-linecap="round" stroke-linejoin="round"/>
 <path d="m3 3c-0.554 0-1 0.446-1 1v5c0 0.554 0.446 1 1 1h3c0.554 0 1-0.446 1-1v-5c0-0.554-0.446-1-1-1h-3zm0 1h3v5h-3v-5z" fill="#363636" stroke-linecap="round" stroke-linejoin="round"/>
 <rect x="8" y="3" width="6" height="1" rx=".5" ry=".5" fill="#363636" stroke-linecap="round" stroke-linejoin="round"/>
 <rect x="8" y="6" width="6" height="1" rx=".5" ry=".5" fill="#363636" stroke-linecap="round" stroke-linejoin="round"/>
 <rect x="8" y="9" width="6" height="1" rx=".5" ry=".5" fill="#363636" stroke-linecap="round" stroke-linejoin="round"/>
 <rect x="2" y="12" width="12" height="1" rx=".5" ry=".5" fill="#363636" stroke-linecap="round" stroke-linejoin="round" stroke-width="1.4142"/>
</svg>

<svg xmlns="http://www.w3.org/2000/svg" width="16" height="16">
    <defs>
        <style id="current-color-scheme" type="text/css">
            .ColorScheme-Text{color:#7c7c7c}.ColorScheme-Highlight{color:#a0b6cb}
        </style>
    </defs>
    <path fill="#050505" fill-opacity=".7" stroke-linecap="round" stroke-linejoin="round" d="M3 1C1.338 1 0 2.338 0 4v8c0 1.662 1.338 3 3 3h10c1.662 0 3-1.338 3-3V4c0-1.662-1.338-3-3-3H3zm0 1h10c1.108 0 2 .892 2 2v8c0 1.108-.892 2-2 2H3c-1.108 0-2-.892-2-2V4c0-1.108.892-2 2-2z"/>
    <path fill="#050505" fill-opacity=".7" stroke-linecap="round" stroke-linejoin="round" d="M3 3c-.554 0-1 .446-1 1v5c0 .554.446 1 1 1h3c.554 0 1-.446 1-1V4c0-.554-.446-1-1-1H3zm0 1h3v5H3V4z"/>
    <rect width="6" height="1" x="8" y="3" fill="#050505" fill-opacity=".7" stroke-linecap="round" stroke-linejoin="round" rx=".5" ry=".5"/>
    <rect width="6" height="1" x="8" y="6" fill="#050505" fill-opacity=".7" stroke-linecap="round" stroke-linejoin="round" rx=".5" ry=".5"/>
    <rect width="6" height="1" x="8" y="9" fill="#050505" fill-opacity=".7" stroke-linecap="round" stroke-linejoin="round" rx=".5" ry=".5"/>
    <rect width="12" height="1" x="2" y="12" fill="#050505" fill-opacity=".7" stroke-linecap="round" stroke-linejoin="round" stroke-width="1.414" rx=".5" ry=".5"/>
</svg>
